svg/blobs-icons/no-decorations/traffic-barrier.svg

<svg xmlns="http://www.w3.org/2000/svg" xmlns:xlink="http://www.w3.org/1999/xlink" preserveAspectRatio="xMidYMid" width="216" height="142" viewBox="0 0 216 142"><defs><style>.cls-3{fill:#142a3b}.cls-5{fill:#060606;opacity:.35}.cls-7{fill:#fbb713}.cls-8{fill:#060606;opacity:.25}</style></defs><g id="group-23svg"><path d="M183.042 141.203s-10.947.0-10.947.0.0-83.192.0-83.192 10.947.0 10.947.0.0 83.192.0 83.192z" id="path-1" class="cls-3" fill-rule="evenodd"/><path d="M50.86 141.203s-10.946.0-10.946.0.0-83.192.0-83.192 10.946.0 10.946.0.0 83.192.0 83.192z" id="path-2" class="cls-3" fill-rule="evenodd"/><path d="M172.095 78.053s10.947.0 10.947.0.0-13.032.0-13.032-10.947.0-10.947.0.0 13.032.0 13.032z" id="path-3" class="cls-5" fill-rule="evenodd"/><path d="M39.913 78.053s10.947.0 10.947.0.0-13.032.0-13.032-10.947.0-10.947.0.0 13.032.0 13.032z" id="path-4" class="cls-5" fill-rule="evenodd"/><path d="M215.554 65.021s-215.541.0-215.541.0S.013.003.013.003s215.541.0 215.541.0.0 65.018.0 65.018z" id="path-5" class="cls-7" fill-rule="evenodd"/><path d="M192.04.003s0 23.774.0 23.774c0 14.121-11.448 25.568-25.57 25.568H.013s0 15.675.0 15.675 215.541.0 215.541.0.0-65.017.0-65.017-23.514.0-23.514.0z" id="path-6" class="cls-8" fill-rule="evenodd"/><path d="M200.01 141.203s-44.882.0-44.882.0S155.128 134.636 155.128 134.636s44.882.0 44.882.0S200.01 141.203 200.01 141.203z" id="path-7" class="cls-3" fill-rule="evenodd"/><path d="M68.649 141.203s-44.882.0-44.882.0S23.767 134.636 23.767 134.636s44.882.0 44.882.0S68.649 141.203 68.649 141.203z" id="path-8" class="cls-3" fill-rule="evenodd"/><path d="M.013 58.659s0 6.362.0 6.362 15.872.0 15.872.0S77.016.003 77.016.003s-21.853.0-21.853.0S.013 58.659.013 58.659z" id="path-9" class="cls-3" fill-rule="evenodd"/><path d="M57.721 65.021s23.244.0 23.244.0S140.819.003 140.819.003s-18.078.0-18.078.0-65.02 65.018-65.02 65.018z" id="path-10" class="cls-3" fill-rule="evenodd"/><path d="M128.51 65.021s23.244.0 23.244.0S211.607.003 211.607.003s-18.077.0-18.077.0-65.02 65.018-65.02 65.018z" id="path-11" class="cls-3" fill-rule="evenodd"/></g></svg>

<svg xmlns="http://www.w3.org/2000/svg" xmlns:xlink="http://www.w3.org/1999/xlink" preserveAspectRatio="xMidYMid" width="216" height="142" viewBox="0 0 216 142">
  <defs>
    <style>

      .cls-3 {
        fill: #142a3b;
      }

      .cls-5 {
        fill: #060606;
        opacity: 0.35;
      }

      .cls-7 {
        fill: #fbb713;
      }

      .cls-8 {
        fill: #060606;
        opacity: 0.25;
      }
    </style>
  </defs>
  <g id="group-23svg">
    <path d="M183.042,141.203 C183.042,141.203 172.095,141.203 172.095,141.203 C172.095,141.203 172.095,58.011 172.095,58.011 C172.095,58.011 183.042,58.011 183.042,58.011 C183.042,58.011 183.042,141.203 183.042,141.203 Z" id="path-1" class="cls-3" fill-rule="evenodd"/>
    <path d="M50.860,141.203 C50.860,141.203 39.914,141.203 39.914,141.203 C39.914,141.203 39.914,58.011 39.914,58.011 C39.914,58.011 50.860,58.011 50.860,58.011 C50.860,58.011 50.860,141.203 50.860,141.203 Z" id="path-2" class="cls-3" fill-rule="evenodd"/>
    <path d="M172.095,78.053 C172.095,78.053 183.042,78.053 183.042,78.053 C183.042,78.053 183.042,65.021 183.042,65.021 C183.042,65.021 172.095,65.021 172.095,65.021 C172.095,65.021 172.095,78.053 172.095,78.053 Z" id="path-3" class="cls-5" fill-rule="evenodd"/>
    <path d="M39.913,78.053 C39.913,78.053 50.860,78.053 50.860,78.053 C50.860,78.053 50.860,65.021 50.860,65.021 C50.860,65.021 39.913,65.021 39.913,65.021 C39.913,65.021 39.913,78.053 39.913,78.053 Z" id="path-4" class="cls-5" fill-rule="evenodd"/>
    <path d="M215.554,65.021 C215.554,65.021 0.013,65.021 0.013,65.021 C0.013,65.021 0.013,0.003 0.013,0.003 C0.013,0.003 215.554,0.003 215.554,0.003 C215.554,0.003 215.554,65.021 215.554,65.021 Z" id="path-5" class="cls-7" fill-rule="evenodd"/>
    <path d="M192.040,0.003 C192.040,0.003 192.040,23.777 192.040,23.777 C192.040,37.898 180.592,49.345 166.470,49.345 C166.470,49.345 0.013,49.345 0.013,49.345 C0.013,49.345 0.013,65.020 0.013,65.020 C0.013,65.020 215.554,65.020 215.554,65.020 C215.554,65.020 215.554,0.003 215.554,0.003 C215.554,0.003 192.040,0.003 192.040,0.003 Z" id="path-6" class="cls-8" fill-rule="evenodd"/>
    <path d="M200.010,141.203 C200.010,141.203 155.128,141.203 155.128,141.203 C155.128,141.203 155.128,134.636 155.128,134.636 C155.128,134.636 200.010,134.636 200.010,134.636 C200.010,134.636 200.010,141.203 200.010,141.203 Z" id="path-7" class="cls-3" fill-rule="evenodd"/>
    <path d="M68.649,141.203 C68.649,141.203 23.767,141.203 23.767,141.203 C23.767,141.203 23.767,134.636 23.767,134.636 C23.767,134.636 68.649,134.636 68.649,134.636 C68.649,134.636 68.649,141.203 68.649,141.203 Z" id="path-8" class="cls-3" fill-rule="evenodd"/>
    <path d="M0.013,58.659 C0.013,58.659 0.013,65.021 0.013,65.021 C0.013,65.021 15.885,65.021 15.885,65.021 C15.885,65.021 77.016,0.003 77.016,0.003 C77.016,0.003 55.163,0.003 55.163,0.003 C55.163,0.003 0.013,58.659 0.013,58.659 Z" id="path-9" class="cls-3" fill-rule="evenodd"/>
    <path d="M57.721,65.021 C57.721,65.021 80.965,65.021 80.965,65.021 C80.965,65.021 140.819,0.003 140.819,0.003 C140.819,0.003 122.741,0.003 122.741,0.003 C122.741,0.003 57.721,65.021 57.721,65.021 Z" id="path-10" class="cls-3" fill-rule="evenodd"/>
    <path d="M128.510,65.021 C128.510,65.021 151.754,65.021 151.754,65.021 C151.754,65.021 211.607,0.003 211.607,0.003 C211.607,0.003 193.530,0.003 193.530,0.003 C193.530,0.003 128.510,65.021 128.510,65.021 Z" id="path-11" class="cls-3" fill-rule="evenodd"/>
  </g>
</svg>
